src/assets/img/icons/duotone-icons/Communication/Chat-check.svg

<?xml version="1.0" encoding="UTF-8"?>
<svg width="24px" height="24px" viewBox="0 0 24 24" version="1.1" xmlns="http://www.w3.org/2000/svg" xmlns:xlink="http://www.w3.org/1999/xlink">
    <!-- Generator: Sketch 52.2 (67145) - http://www.bohemiancoding.com/sketch -->
    <title>Stockholm-icons / Communication / Chat-check</title>
    <desc>Created with Sketch.</desc>
    <g id="Stockholm-icons-/-Communication-/-Chat-check" stroke="none" stroke-width="1" fill="none" fill-rule="evenodd">
        <rect id="bound" x="0" y="0" width="24" height="24"></rect>
        <path d="M4.875,20.75 C4.63541667,20.75 4.39583333,20.6541667 4.20416667,20.4625 L2.2875,18.5458333 C1.90416667,18.1625 1.90416667,17.5875 2.2875,17.2041667 C2.67083333,16.8208333 3.29375,16.8208333 3.62916667,17.2041667 L4.875,18.45 L8.0375,15.2875 C8.42083333,14.9041667 8.99583333,14.9041667 9.37916667,15.2875 C9.7625,15.6708333 9.7625,16.2458333 9.37916667,16.6291667 L5.54583333,20.4625 C5.35416667,20.6541667 5.11458333,20.75 4.875,20.75 Z" id="check" fill="#335EEA" opacity="0.3"></path>
        <path d="M2,11.8650466 L2,6 C2,4.34314575 3.34314575,3 5,3 L19,3 C20.6568542,3 22,4.34314575 22,6 L22,15 C22,15.0032706 21.9999948,15.0065399 21.9999843,15.009808 L22.0249378,15 L22.0249378,19.5857864 C22.0249378,20.1380712 21.5772226,20.5857864 21.0249378,20.5857864 C20.7597213,20.5857864 20.5053674,20.4804296 20.317831,20.2928932 L18.0249378,18 L12.9835977,18 C12.7263047,14.0909841 9.47412135,11 5.5,11 C4.23590829,11 3.04485894,11.3127315 2,11.8650466 Z M6,7 C5.44771525,7 5,7.44771525 5,8 C5,8.55228475 5.44771525,9 6,9 L15,9 C15.5522847,9 16,8.55228475 16,8 C16,7.44771525 15.5522847,7 15,7 L6,7 Z" id="Combined-Shape" fill="#335EEA"></path>
    </g>
</svg>

<svg width="24" height="24" viewBox="0 0 24 24" xmlns="http://www.w3.org/2000/svg"><g fill="none" fill-rule="evenodd"><path d="M0 0h24v24H0z"/><path d="M4.875 20.75a.946.946 0 01-.67-.288l-1.917-1.916a.926.926 0 010-1.342c.383-.383 1.006-.383 1.341 0l1.246 1.246 3.162-3.162a.926.926 0 011.342 0 .926.926 0 010 1.341l-3.833 3.833a.946.946 0 01-.671.288z" fill="#335EEA" opacity=".3"/><path d="M2 11.865V6a3 3 0 013-3h14a3 3 0 013 3v9.01l.025-.01v4.586a1 1 0 01-1.707.707L18.025 18h-5.041A7.5 7.5 0 002 11.865zM6 7a1 1 0 100 2h9a1 1 0 000-2H6z" fill="#335EEA"/></g></svg>
